!!!COM: Robert Schumann
!!!CNT: Deutsch
!!!TXO: Deutsch
!!!OTL: Nur ein la2chelnder Blick
!!!LYR: Zimmermann
!!!OPR: Lieder und Gesa2nge, i
!!!OPS: Op.27
!!!ONM: No. 5
!!!ENC: Ben Fuhrman
!!!YOR: Schumann Lieder - Max Friedlaender, ed.,
!!!YOR: New York: C. F. Peters, Vol. 2
!!!ODT: 1840/
!!NB: Vocal melody and text only encoded.
!!NB: First instance of melodic material only encoded.
**kern	**silbe
*clefG2	*
*k[]	*
*M6/8	*
!!created: 6/14/06 10:10
!!proofed and posted: 6/14/06 10:10
!!edit time: 50 minutes
=1	=1
{4e	{Nur
8e	ein
8f	la2che-
8e	-len-
8f	-der
=2	=2
(4.f#	Blick
4g)	|
8g#	von
=3	=3
4a	dei-
8a	-nem
(qcc	strah-
8b)	|
8a#	-len-
8b	-den
=4	=4
4.dd	Au-
8cc	-ge,
8cc	und
8an	vom
=5	=5
(4g	freu-
[8g#)	|
8g#]	|
8a	-di-
8f	-gen
=6	=6
4.e	Licht
8e	fu2hl'
8d	ich
8c	mich
=7	=7
[4.f	in-
8f]	|
8g	-nerst
8a	er-
=8	=8
4.d}	hellt.}
{4g	{So
8g	er-
=9	=9
8f	-heit-
8f	-ert
8f	am
8a-	neb'
8g	lich-
8f	-ten
=10	=10
4g	Tag'
8g	ein
8g	freund-
8a-	-li-
8b-	-cher
=11	=11
(2.b-	Strahl
=12	=12
4.c)	uns,
4a-	wenn
8a-	den
=13	=13
8g	du2-
8g	-ste-
8g	-ren
(8b-	Flor
8a-	|
8g)	|
=14	=14
8.a-	plo2tz-
16a-	lich
8a-	die
8a-	Son-
8b-	-ne
8cc	durch-
=15	=15
(4.cc	bricht.
4.bn)}	|}
!! rest to measrure 17
=17	=17
{4e	{Nur
8e	ein
(qe	la2che-
qg	|
8f)	|
8e	-lnd-
8f	-er
=18	=18
(4.f#	Blick
4g)	|
8g#	von
=19	=19
4a	dei-
8a	-nem
(qcc	stra-
8b)	|
8a#	-hlen-
8b	-den
=20	=20
4.dd	Au-
8cc	-ge,
8cc	und
8an	vom
=21	=21
(4g	freu-
[8g#)	|
8g#]	|
8a	-di-
8f	-gen
=22	=22
4.e	Licht
8e	fu2hl'
8d	ich
8c	mich
=23	=23
[4.f	in-
8f]	|
8g	-nerst
8a	er-
=24	=24
(4.a	hellt,
8d)}	|}
8r	.
8r	.
=25	=25
{[4.cc	{in-
4cc]	|
8d	-nerst,
=26	=26
[4.f	in-
8f]	|
8d	-nerst
8e	er-
=27	=27
4.d}	-hellt.}
4r	.
8r	.
!! rest to measure 32
=32	=32
{4e	{Nur
8e	ein
8f	lieb-
8e	-li-
8f	-ches
=33	=33
(4.f#	Wort
4g)	|
8g#	aus
=34	=34
4a	dei-
8a	-nem
(qcc	ro-
8b)	|
8a#	-si-
8b	-gen
=35	=35
4.dd	Mun-
8cc	-de,
8cc	und
8an	mein
=36	=36
(4g	gan-
[8g#	|
8g#]	|
8a)	|
8f	-zes
=37	=37
4.e	Sein
8e	fu2hl'
8d	ich
8c	be-
=38	=38
[4.f	-le-
8f]	|
8g	-bend
8a	er-
=39	=39
4.d}	-quickt.}
{4g	{So
8g	durch-
=40	=40
8f	duf-
8f	-tet
8f	wie
(8a-	stark
8g)	|
8f	ein
=41	=41
4g	Tro2pf-
8g	-chen
8g	O2l,
8a-	von
8b-	der
=42	=42
(2.b-	Ro-
=43	=43
4.c)	-se
4a-	wu2rz'
8a-	ger
=44	=44
8g	Blu-
8g	-me
8g	ge-
(8b-	presst,
8a-	|
8g)	|
=45	=45
8.a-	Lock-
16a-	-en
8a-	und
8a-	Brust
8b-	und
8cc	Ge-
=46	=46
(4.cc	-wand.
4.bn)}	|}
!! rest to measure 48
=48	=48
{4e	{Nur
8e	ein
(qe	lieb-
qg	|
8f)	|
8e	-li-
8f	-ches
=49	=49
(4.f#	Wort
4g)	|
8g#	aus
=50	=50
4a	dei-
8a	-nem
(qcc	ro-
8b)	|
8a#	-si-
8b	-gen
=51	=51
4.dd	Mun-
8cc	-de,
8cc	und
8an	mein
=52	=52
(4g	gan-
[8g#	|
8g#]	|
8a)	|
8f	-zes
=53	=53
4.e	Sein
8e	fu2hl'
8d	ich
8c	be-
=54	=54
[4.f	-le-
8f]	|
8g	-bend
8a	er-
=55	=55
(4.a	-quickt,
8d)}	|}
8r	.
{8d	{be-
=56	=56
4.cc	-le-
4d	-bend,
8d	be-
=57	=57
[4.f	-le-
8f]	|
8d	-bend
8e	er-
=58	=58
4.c}	-quickt.}
4r	.
8r	.
==	==
*-	*-
